src/actions/22/view-media-lyrics.svg

<svg xmlns="http://www.w3.org/2000/svg" viewBox="0 0 22 22">
    <defs id="defs3051">
        <style id="current-color-scheme" type="text/css">
            .ColorScheme-Highlight{color:#a0b6cb}
        </style>
    </defs>
    <path d="M3 3v1h16V3H3zm0 3v1h9V6H3zm13 2v6.5a2.477 2.477 0 0 0-1.5-.5 2.495 2.495 0 0 0-2.5 2.5c0 1.385 1.115 2.5 2.5 2.5s2.5-1.115 2.5-2.5V10h2c0-1.108-.892-2-2-2h-1zM3 9v1h11V9H3zm0 3v1h9v-1H3zm0 3v1h7v-1H3zm0 3v1h7v-1H3z" style="fill:currentColor;fill-opacity:1;stroke:none;color:#050505;opacity:.7"/>
</svg>

<svg xmlns="http://www.w3.org/2000/svg" viewBox="0 0 22 22">
  <defs id="defs3051">
    <style type="text/css" id="current-color-scheme">
      .ColorScheme-Text {
        color:#363636;
      }
      .ColorScheme-Highlight {
        color:#a0b6cb;
      }
      </style>
  </defs>
 <path 
     style="fill:currentColor;fill-opacity:1;stroke:none" 
     d="M 3 3 L 3 4 L 19 4 L 19 3 L 3 3 z M 3 6 L 3 7 L 12 7 L 12 6 L 3 6 z M 16 8 L 16 9 L 16 14.5 C 15.5818 14.1852 15.066 14 14.5 14 C 13.115 14 12 15.115 12 16.5 C 12 17.885 13.115 19 14.5 19 C 15.885 19 17 17.885 17 16.5 L 17 10 L 19 10 C 19 8.892 18.108 8 17 8 L 16 8 z M 3 9 L 3 10 L 14 10 L 14 9 L 3 9 z M 3 12 L 3 13 L 12 13 L 12 12 L 3 12 z M 3 15 L 3 16 L 10 16 L 10 15 L 3 15 z M 3 18 L 3 19 L 10 19 L 10 18 L 3 18 z "
     class="ColorScheme-Text"
     />
</svg>
